X:1
T:The Road To Errogie
R:reel
M:4/4
L:1/8
K:A
AF|:EA~A2 BABc|eA~A2 Bcec|f2fe cBAc|B2Bc BAFA|
|EA~A2 BABc|eA~A2 Bcec|f2fe cBAc|1 BAcB A2AF:|2 BAcB A3e|]
|a2a a2 aba|c'3b a2e2|f2e a2 ef2-|feae fece|
|a2a a2 aba|c'3b a2e2|f2fa ecAc|BAcB A3e|
|a2a a2 aba|c'3b a2e2|f2e a2 ef2-|feae fecA|
|EA~A2 BABc|eA~A2 Bcec|f2fe cBAc|BAcB A2AF|